X:1
T:Title
%%score ( 1 2 3 ) { 4 | ( 5 6 ) }
L:1/8
Q:1/4=125
M:3/4
K:G
V:1 treble nm="Grand Piano, Staff 1"
V:2 treble 
V:3 treble 
V:4 bass nm="Choir Pad, Song 18 (Gibbons), 88.68"
V:5 bass 
V:6 bass 
V:1
 [EB]2 [EB]4 | [EG]2 [FA]4 | [GB]2 G2 z2 | ^D2 E4 | [EG]2 [EG]4 | [FA]2 [GB]4 | [GB]2 B4 | %7
w: By~Orlando~Gibbons~(1583\-1625) *|||||||
 _B2 [F=B]4 | [FB]2 [Fd]4 | [DA]2 [DB]4 | [EG]2 [^DF]4 | [^DF]2 [EG]4 | E2 [FA]4 | z2 z2 A2- | %14
w: |||||||
 A2 z2 z2 | [EG]2 [Ec]4 | [EB]2 [CA]4 | [DG]2 [DF]4 | [B,E]2 [B,^D]4 | [DF]2 [DA]4 | z2 z2 F2- | %21
w: |||||||
 F2 z2 z2 | z6 |] %23
w: ||
V:2
 x6 | x6 | z2 z2 F2- | F2 z2 z2 | x6 | x6 | z2 D2 F2- | F2 z2 z2 | x6 | x6 | x6 | x6 | x6 | %13
 F2 B2 z2 | F2 G4 | x6 | x6 | x6 | x6 | x6 | [DG]2 G2 z2 | ^D2 E4- | E4 z2 |] %23
V:3
 x6 | x6 | z2 E4 | x6 | x6 | x6 | x6 | x6 | x6 | x6 | x6 | x6 | x6 | z2 G4 | x6 | x6 | x6 | x6 | %18
 x6 | x6 | x6 | x6 | x6 |] %23
V:4
 G,2 G,4 | B,2 D4 | D2 C2 F,2 | B,2 G,4 | B,2 B,4 | D2 D4 | E2 B,2 ^C2- | C2 ^C4 | C2[K:bass] B,4 | %9
 A,2 G,4 | B,2 B,4 | B,2 B,4 | ^C2 C4 | D2 D4 | DC[K:bass] B,4 | G,2 A,4 | ^G,2 A,2 F,2 | G,2 A,4 | %18
 G,2 F,4 | B,2 A,4 | B,2 B,4 | z2 G,4- | G,4 z2 |] %23
V:5
 E,2 E,4 | E,2 D,4 | G,,2 A,,2 B,,2- | B,,2 E,4 | E,2 E,4 | D,2 G,4 | E,2 G,2 F,2- | F,2 B,,4 | %8
 B,2 z2 z2 | F,2 z2 z2 | E,2 z2 z2 | B,,2 E,4 | A,2 F,4 | B,2 G,2 D,2- | D,2 G,,4 | C,2 A,,4 | %16
 E,2 A,,4 | B,,2 D,4 | E,2 B,,4 | B,,2 F,,4 | G,,2 E,2 z2 | B,2 E,4- | E,4 z2 |] %23
V:6
 x6 | x6 | x6 | x6 | x6 | x6 | x6 | x6 | x6 | x6 | x6 | x6 | x6 | x6 | x6 | x6 | x6 | x6 | x6 | %19
 x6 | z2 z2 B,,2- | B,,2 z2 z2 | x6 |] %23

